public/assets/features/socialmedia.svg

<svg width="58" height="58" viewBox="0 0 58 58" fill="none" xmlns="http://www.w3.org/2000/svg">
<path d="M58 41.151C58 51.707 51.707 58 41.151 58H37.7C36.105 58 34.8 56.695 34.8 55.1V38.367C34.8 37.584 35.438 36.917 36.221 36.917L41.325 36.83C41.731 36.801 42.079 36.511 42.166 36.105L43.181 30.566C43.2007 30.4405 43.193 30.3121 43.1583 30.1899C43.1236 30.0676 43.0628 29.9543 42.9801 29.8578C42.8974 29.7614 42.7947 29.684 42.6792 29.631C42.5637 29.578 42.4381 29.5507 42.311 29.551L36.134 29.638C35.322 29.638 34.684 29 34.655 28.217L34.539 21.112C34.539 20.648 34.916 20.242 35.409 20.242L42.369 20.126C42.862 20.126 43.239 19.749 43.239 19.256L43.123 12.296C43.123 11.803 42.746 11.426 42.253 11.426L34.423 11.542C33.28 11.5594 32.1517 11.8021 31.1026 12.2563C30.0536 12.7106 29.1046 13.3673 28.3098 14.189C27.5151 15.0107 26.8903 15.9811 26.4713 17.0447C26.0523 18.1083 25.8473 19.2441 25.868 20.387L26.013 28.362C26.042 29.174 25.404 29.812 24.592 29.841L21.112 29.899C20.619 29.899 20.242 30.276 20.242 30.769L20.329 36.279C20.329 36.772 20.706 37.149 21.199 37.149L24.679 37.091C25.491 37.091 26.129 37.729 26.158 38.512L26.419 55.042C26.448 56.666 25.143 58 23.519 58H16.849C6.293 58 0 51.707 0 41.122V16.849C0 6.293 6.293 0 16.849 0H41.151C51.707 0 58 6.293 58 16.849V41.151Z" fill="url(#paint0_linear_383_43)"/>
<defs>
<linearGradient id="paint0_linear_383_43" x1="5.71497e-07" y1="-2.9" x2="72.5" y2="88.45" gradientUnits="userSpaceOnUse">
<stop stop-color="#D84D61"/>
<stop offset="0.447917" stop-color="#D2115F"/>
<stop offset="1" stop-color="#BF0A70"/>
</linearGradient>
</defs>
</svg>

<svg xmlns="http://www.w3.org/2000/svg" width="58" height="58" fill="none" xmlns:v="https://vecta.io/nano"><path d="M58 41.151C58 51.707 51.707 58 41.151 58H37.7a2.91 2.91 0 0 1-2.9-2.9V38.367c0-.783.638-1.45 1.421-1.45l5.104-.087c.406-.029.754-.319.841-.725l1.015-5.539a.88.88 0 0 0-.201-.708.88.88 0 0 0-.669-.307l-6.177.087c-.812 0-1.45-.638-1.479-1.421l-.116-7.105c0-.464.377-.87.87-.87l6.96-.116c.493 0 .87-.377.87-.87l-.116-6.96c0-.493-.377-.87-.87-.87l-7.83.116a8.69 8.69 0 0 0-6.113 2.647 8.69 8.69 0 0 0-2.442 6.198l.145 7.975c.029.812-.609 1.45-1.421 1.479l-3.48.058c-.493 0-.87.377-.87.87l.087 5.51c0 .493.377.87.87.87l3.48-.058c.812 0 1.45.638 1.479 1.421l.261 16.53c.029 1.624-1.276 2.958-2.9 2.958h-6.67C6.293 58 0 51.707 0 41.122V16.849C0 6.293 6.293 0 16.849 0h24.302C51.707 0 58 6.293 58 16.849v24.302z" fill="url(#A)"/><defs><linearGradient id="A" x1="0" y1="-2.9" x2="72.5" y2="88.45" gradientUnits="userSpaceOnUse"><stop stop-color="#d84d61"/><stop offset=".448" stop-color="#d2115f"/><stop offset="1" stop-color="#bf0a70"/></linearGradient></defs></svg>
